X:93
T:The 79th's Farewell to Gibraltar
M:2/4
Q:1/4=100
L:1/8
K:A
%%MIDI channel 1
%%MIDI program 72
%%MIDI transpose 8
%%MIDI grace 1/8
%%MIDI ratio 3 1
c/d/|:e>f ec|A>B Aa/g/|fe/c/ e/f/a/e/|cB Bc/d/|e>f ec|A>B Aa/e/|fe/d/ e/f/a/e/|
[1 cA Ac/d/:|[2 cA Aa/g/|:[L:1/16]f2ec efae|faec B2ae|f2ec efae|f2B2 B2ag|f2ec efae|
faec B2ae|f2ec efae|[1 c2A2 A2ag:|[2 c2A2 A2cB|:[L:1/8]A>c ea|fe/c/ Bc/B/|A/B/c/d/ e/f/e/c/|
fB Bc/B/|A>c ea|fe/c/ Bc/B/|A/B/c/d/ e/f/e/d/|[1 cA Ac/B/:|[2 cA Ac/d/|:e>f ec|e>f ea/g/|
f>g fe|f>g fa/g/|fe/d/ cB/A/|B/A/B/c/ ea/g/|fe/c/ e/f/a/e/|[1 cA Ac/d/:|[2 cA Az:|

